public/assets/icons/ic_profile3.svg

<svg width="45" height="45" viewBox="0 0 45 45" fill="none" xmlns="http://www.w3.org/2000/svg">
<g clip-path="url(#clip0_1120_589)">
<rect width="45" height="45" rx="22.5" fill="url(#paint0_linear_1120_589)"/>
<path d="M14.6543 21.6775H13.1731C12.3564 21.6775 11.6931 22.8952 11.6931 24.4052C11.6931 25.9151 12.3564 27.1316 13.1731 27.1316H14.6543C15.4709 27.1316 16.1342 25.9139 16.1342 24.4052C16.1342 22.8964 15.4709 21.6775 14.6543 21.6775Z" fill="#4D7DFF"/>
<path d="M19.1112 34.6459C18.1103 34.646 17.1118 34.5465 16.1306 34.3488C10.9969 33.3161 7.05842 29.797 5.54193 25.4765" stroke="black" stroke-width="0.0857778" stroke-linecap="round" stroke-linejoin="round"/>
<path d="M18.6561 36.5141C17.6837 36.4876 16.7154 36.3776 15.7618 36.1853C10.1547 35.0577 5.56141 31.1927 3.77716 26.0965C3.64314 25.6362 3.69058 25.1419 3.90969 24.7155C4.12881 24.2891 4.50294 23.963 4.95511 23.8041C5.40729 23.6453 5.90311 23.666 6.34054 23.8618C6.77797 24.0576 7.12374 24.4137 7.30671 24.8569C8.65646 28.7097 12.1751 31.6432 16.4945 32.5115C17.354 32.6844 18.2285 32.7717 19.1052 32.772H19.1575C19.6469 32.7892 20.1102 32.9975 20.448 33.3522C20.7858 33.707 20.9713 34.18 20.9648 34.6699C20.9582 35.1599 20.7602 35.6277 20.4131 35.9734C20.0659 36.319 19.5973 36.5148 19.1076 36.5189C18.964 36.5226 18.8082 36.5226 18.6561 36.5141Z" fill="#3F99F2"/>
<path d="M32.7171 34.6486C37.7972 37.2934 41.3389 40.6531 40.8509 41.4848C40.3628 42.3165 32.7171 40.2013 27.2402 37.7696" stroke="black" stroke-width="0.0857778" stroke-linecap="round" stroke-linejoin="round"/>
<path d="M40.1303 43.5477C39.3636 43.5477 38.497 43.3882 37.6037 43.1982C37.2288 43.1169 36.8878 42.9225 36.6269 42.6411C36.366 42.3598 36.1976 42.0051 36.1445 41.625C36.0914 41.2449 36.1562 40.8577 36.3301 40.5156C36.504 40.1734 36.7786 39.8929 37.1168 39.7119C35.4809 38.4053 33.7183 37.2659 31.8554 36.3108C31.4221 36.0773 31.0982 35.6825 30.9535 35.2119C30.8089 34.7412 30.8552 34.2325 31.0824 33.7958C31.3096 33.359 31.6995 33.0293 32.1678 32.8778C32.6361 32.7264 33.1451 32.7654 33.5848 32.9865C37.617 35.0858 42.0314 38.3724 42.6692 40.5936C42.7633 40.8978 42.7941 41.2182 42.7598 41.5348C42.7255 41.8515 42.6267 42.1577 42.4696 42.4347C41.9669 43.2725 41.1369 43.5477 40.1303 43.5477Z" fill="#3F99F2"/>
<path d="M28.0422 35.8006C32.1183 37.6113 37.1241 39.1116 39.4256 39.4611" stroke="black" stroke-width="0.513441" stroke-miterlimit="10" stroke-linecap="round"/>
<path d="M32.8704 32.0303H18.7948C12.9796 38.0312 14.036 45.7527 14.9001 50.9999H36.7651C37.6292 45.7527 38.6808 38.0312 32.8704 32.0303Z" fill="white"/>
<path d="M20.7239 18.3872C21.2959 17.687 20.9113 16.1697 20.2772 14.1093C19.7551 12.4155 19.3571 11.0553 18.1303 10.7363C17.3866 10.5426 16.5663 10.6729 15.5172 12.0404C14.7553 13.0353 14.2514 14.2555 14.6652 15.3879C15.247 17.0038 17.3611 17.8039 19.0857 18.4115C19.8403 18.6794 20.4439 18.7306 20.7239 18.3872Z" fill="white"/>
<path d="M14.6604 15.3878C15.2421 17.0037 17.3562 17.8038 19.0808 18.4102C19.5774 18.5855 20.007 18.6683 20.3235 18.6087L20.7239 18.387L15.5172 12.0464C14.7553 13.0352 14.2514 14.2553 14.6604 15.3878Z" fill="#FF78B9"/>
<path d="M39.1031 43.4452C39.0078 43.4451 38.9126 43.4378 38.8183 43.4233C35.8571 42.9728 30.4375 41.2412 26.4795 39.4816C26.2548 39.3817 26.0519 39.2385 25.8825 39.0602C25.7131 38.8819 25.5804 38.672 25.4921 38.4424C25.4038 38.2128 25.3615 37.968 25.3677 37.7221C25.3739 37.4761 25.4285 37.2338 25.5283 37.009C25.6281 36.7842 25.7712 36.5812 25.9495 36.4117C26.1277 36.2422 26.3375 36.1095 26.567 36.0211C26.7965 35.9327 27.0411 35.8904 27.2869 35.8967C27.5327 35.9029 27.7749 35.9575 27.9996 36.0574C32.0756 37.8681 37.0815 39.3683 39.3818 39.7178C39.8494 39.7879 40.2731 40.0323 40.5681 40.402C40.863 40.7717 41.0073 41.2393 40.9721 41.711C40.9368 42.1827 40.7245 42.6236 40.3779 42.9452C40.0313 43.2669 39.5759 43.4455 39.1031 43.4452Z" fill="#3F99F2"/>
<path d="M33.7029 30.7007C33.7029 32.9657 31.4951 32.9705 25.832 32.9705C20.1689 32.9705 17.9623 33.0485 17.9623 30.7007C17.9623 28.353 19.5749 28.4309 25.832 28.4309C32.089 28.4309 33.7029 28.4358 33.7029 30.7007Z" fill="#3442D9"/>
<path d="M36.0336 20.5706C34.5597 19.3711 34.3114 18.6441 33.7394 16.6276C32.9568 13.8743 31.4671 10.5975 25.8283 10.5975C20.1896 10.5975 18.7035 13.8743 17.9173 16.6276C17.3453 18.6441 17.097 19.3711 15.6231 20.5706C14.9432 21.1221 14.3947 21.8184 14.0176 22.6088C13.6406 23.3991 13.4443 24.2637 13.4433 25.1394C13.4416 26.5543 13.951 27.9222 14.8775 28.9911C15.8041 30.06 17.0855 30.758 18.4857 30.9565C21.2448 31.3425 24.0587 31.3035 25.8235 31.3035C27.5883 31.3035 30.4034 31.3425 33.1625 30.9565C34.5626 30.7577 35.8438 30.0597 36.7703 28.9909C37.6969 27.922 38.2063 26.5543 38.2049 25.1394C38.2049 24.2643 38.01 23.4002 37.6344 22.6099C37.2588 21.8196 36.712 21.123 36.0336 20.5706Z" fill="white"/>
<path d="M37.0134 27.1316C36.1955 27.1316 35.5334 25.9139 35.5334 24.4052C35.5334 22.8964 36.1955 21.6775 37.0134 21.6775H38.4933V27.1316H37.0134Z" fill="#336AFF"/>
<path d="M38.4934 27.1317C39.3107 27.1317 39.9734 25.911 39.9734 24.4052C39.9734 22.8994 39.3107 21.6788 38.4934 21.6788C37.676 21.6788 37.0134 22.8994 37.0134 24.4052C37.0134 25.911 37.676 27.1317 38.4934 27.1317Z" fill="#4D7DFF"/>
<path d="M32.156 13.2362C31.9126 9.90938 32.156 8 25.8198 8C19.4837 8 19.7344 9.90451 19.4837 13.2362C19.4472 13.7233 22.3207 14.1227 25.8198 14.1227C29.319 14.1227 32.1925 13.7245 32.156 13.2362Z" fill="#8CD9FF"/>
<path d="M25.8199 13.4908C29.1693 13.4908 31.287 13.1876 32.1292 12.8503C32.1171 12.6668 32.1049 12.4878 32.0927 12.3133C31.7617 12.5933 29.4151 12.9806 25.8199 12.9806C24.6673 12.9806 23.6425 12.9404 22.771 12.8771C22.9175 12.3918 23.0906 11.9149 23.2895 11.4487C23.3005 11.43 23.3091 11.4099 23.3151 11.389C24.3082 9.14356 25.675 8.38249 28.2613 8.13408C27.8694 8.08415 27.4361 8.05006 26.9566 8.02814C26.3567 8.00085 25.7604 8.13455 25.2296 8.41538C24.3654 8.87933 23.696 9.57098 23.1435 10.5963C22.8354 9.76913 22.2761 9.05927 21.5442 8.56637C21.3591 8.64049 21.1804 8.72968 21.0099 8.83304C21.468 9.08947 21.8657 9.44137 22.176 9.86491C22.4864 10.2884 22.7022 10.7737 22.8088 11.288C22.5928 11.7925 22.4066 12.3093 22.2514 12.8357C20.7105 12.6969 19.7502 12.485 19.547 12.3133C19.5348 12.487 19.5226 12.666 19.5105 12.8503C20.3527 13.1876 22.4704 13.4908 25.8199 13.4908Z" fill="#52B3FF"/>
<path d="M29.3859 17.8744C29.751 18.1728 29.3859 18.8571 28.7773 19.6146C28.1688 20.372 27.5408 20.9114 27.1708 20.6143C26.8008 20.3172 27.1708 19.6401 27.7793 18.8778C28.3879 18.1155 29.0159 17.5761 29.3859 17.8744Z" fill="black"/>
<path d="M30.5957 22.0209C30.8525 22.2291 30.5957 22.7052 30.177 23.2313C29.7583 23.7573 29.3165 24.1336 29.0597 23.9254C28.8029 23.7172 29.0597 23.2447 29.4821 22.7186C29.9044 22.1926 30.3389 21.8139 30.5957 22.0209Z" fill="#FF99CA"/>
<path d="M32.8972 22.0209C33.154 22.2291 32.8972 22.7052 32.4773 23.2313C32.0574 23.7573 31.618 24.1336 31.3612 23.9254C31.1044 23.7172 31.3612 23.2447 31.7823 22.7186C32.2034 22.1926 32.6404 21.8139 32.8972 22.0209Z" fill="#FF99CA"/>
<path d="M18.9908 22.7186C18.6658 22.1926 18.3043 21.8139 18.0086 22.0209C17.7128 22.2279 17.8735 22.7052 18.1984 23.2313C18.5234 23.7573 18.8873 24.1336 19.1831 23.9254C19.4788 23.7172 19.3145 23.2496 18.9908 22.7186Z" fill="#FF99CA"/>
<path d="M16.1391 22.0209C15.8434 22.2291 16.0052 22.7052 16.329 23.2313C16.6527 23.7573 17.0179 24.1336 17.3136 23.9254C17.6094 23.7172 17.4451 23.2447 17.1213 22.7186C16.7976 22.1926 16.4349 21.8139 16.1391 22.0209Z" fill="#FF99CA"/>
<path d="M19.2622 17.8916C18.852 18.1352 19.0857 18.8244 19.547 19.6135C20.0082 20.4026 20.5206 20.9907 20.932 20.7521C21.3434 20.5134 21.1048 19.8217 20.6436 19.0326C20.1823 18.2436 19.6723 17.6554 19.2622 17.8916Z" fill="black"/>
<path d="M22.3937 22.5942C22.3937 22.0438 24.3861 22.0438 24.3861 22.5942C24.3861 23.1446 23.7982 23.4466 23.3893 23.4466C22.9803 23.4466 22.3937 23.1446 22.3937 22.5942Z" fill="black"/>
<path d="M4.75571 27.5516C6.83744 27.5516 8.52502 25.8632 8.52502 23.7804C8.52502 21.6975 6.83744 20.0091 4.75571 20.0091C2.67397 20.0091 0.986389 21.6975 0.986389 23.7804C0.986389 25.8632 2.67397 27.5516 4.75571 27.5516Z" fill="#5865F2"/>
<path d="M26.3955 41.0428C28.4772 41.0428 30.1648 39.3544 30.1648 37.2716C30.1648 35.1888 28.4772 33.5003 26.3955 33.5003C24.3138 33.5003 22.6262 35.1888 22.6262 37.2716C22.6262 39.3544 24.3138 41.0428 26.3955 41.0428Z" fill="#5865F2"/>
<path d="M31.3077 18.7171C30.5774 17.9791 30.8476 16.362 31.3625 14.1251C31.7945 12.2486 32.1231 10.7155 33.5459 10.411C34.3979 10.2284 35.3715 10.4183 36.6714 11.9941C37.5952 13.1131 38.2268 14.4405 37.8483 15.6289C37.314 17.3045 35.049 18.1155 33.1771 18.7378C32.3446 19.0215 31.6643 19.0751 31.3077 18.7171Z" fill="white"/>
<path d="M33.7394 16.6262C33.894 17.2121 34.0784 17.7896 34.292 18.3566C35.8608 17.7757 37.4174 16.9867 37.8483 15.635C38.2268 14.4465 37.5951 13.1192 36.6714 12.0001C36.486 11.7726 36.2877 11.5559 36.0774 11.3511L33.4303 15.646C33.5471 15.9747 33.6481 16.3084 33.7394 16.6262Z" fill="#FF78B9"/>
<path d="M22.3937 25.3256L24.9033 25.0991C24.9033 25.0991 24.7439 26.7564 23.881 26.8708C23.0181 26.9853 22.7442 26.0757 22.3937 25.3256Z" fill="#FF99CA"/>
</g>
<defs>
<linearGradient id="paint0_linear_1120_589" x1="22.5002" y1="2.99733" x2="22.5002" y2="22.0804" gradientUnits="userSpaceOnUse">
<stop stop-color="#3F99F2"/>
<stop offset="1" stop-color="#8CD9FF"/>
</linearGradient>
<clipPath id="clip0_1120_589">
<rect width="45" height="45" rx="22.5" fill="white"/>
</clipPath>
</defs>
</svg>

<svg xmlns="http://www.w3.org/2000/svg" width="45" height="45" fill="none"><g clip-path="url(#a)"><rect width="45" height="45" fill="url(#b)" rx="22.5"/><path fill="#4D7DFF" d="M14.65 21.68h-1.48c-.81 0-1.48 1.22-1.48 2.73 0 1.5.67 2.72 1.48 2.72h1.48c.82 0 1.48-1.22 1.48-2.72 0-1.51-.66-2.73-1.48-2.73Z"/><path stroke="#000" stroke-linecap="round" stroke-linejoin="round" stroke-width=".09" d="M19.11 34.65c-1 0-2-.1-2.98-.3C11 33.32 7.06 29.8 5.54 25.48"/><path fill="#3F99F2" d="M18.66 36.51c-.98-.02-1.94-.13-2.9-.32-5.6-1.13-10.2-5-11.98-10.1a1.88 1.88 0 0 1 3.53-1.23c1.35 3.85 4.87 6.78 9.18 7.65.86.17 1.74.26 2.62.26h.05a1.87 1.87 0 0 1-.05 3.75h-.45Z"/><path stroke="#000" stroke-linecap="round" stroke-linejoin="round" stroke-width=".09" d="M32.72 34.65c5.08 2.64 8.62 6 8.13 6.83-.49.84-8.13-1.28-13.61-3.71"/><path fill="#3F99F2" d="M40.13 43.55c-.77 0-1.63-.16-2.53-.35a1.87 1.87 0 0 1-.48-3.49 31.35 31.35 0 0 0-5.26-3.4A1.87 1.87 0 0 1 33.58 33c4.04 2.1 8.45 5.38 9.09 7.6a2.33 2.33 0 0 1-.2 1.84c-.5.84-1.33 1.12-2.34 1.12Z"/><path stroke="#000" stroke-linecap="round" stroke-miterlimit="10" stroke-width=".51" d="M28.04 35.8c4.08 1.81 9.08 3.31 11.39 3.66"/><path fill="#fff" d="M32.87 32.03H18.79c-5.81 6-4.75 13.72-3.89 18.97h21.87c.86-5.25 1.91-12.97-3.9-18.97ZM20.72 18.39c.58-.7.2-2.22-.44-4.28-.52-1.7-.92-3.05-2.15-3.37-.74-.2-1.56-.07-2.61 1.3-.76 1-1.27 2.22-.85 3.35.58 1.61 2.7 2.41 4.42 3.02.75.27 1.35.32 1.63-.02Z"/><path fill="#FF78B9" d="M14.66 15.39c.58 1.61 2.7 2.41 4.42 3.02.5.18.93.26 1.24.2l.4-.22-5.2-6.34c-.76.99-1.27 2.2-.86 3.34Z"/><path fill="#3F99F2" d="M39.1 43.45c-.1 0-.19-.01-.28-.03-2.96-.45-8.38-2.18-12.34-3.94A1.87 1.87 0 0 1 28 36.06c4.08 1.8 9.08 3.3 11.38 3.66a1.87 1.87 0 0 1-.28 3.73Z"/><path fill="#3442D9" d="M33.7 30.7c0 2.27-2.2 2.27-7.87 2.27-5.66 0-7.87.08-7.87-2.27s1.61-2.27 7.87-2.27 7.87 0 7.87 2.27Z"/><path fill="#fff" d="M36.03 20.57c-1.47-1.2-1.72-1.93-2.3-3.94-.77-2.76-2.26-6.03-7.9-6.03-5.64 0-7.13 3.27-7.91 6.03-.57 2.01-.82 2.74-2.3 3.94a5.89 5.89 0 0 0 2.87 10.39c2.75.38 5.57.34 7.33.34 1.77 0 4.58.04 7.34-.34a5.87 5.87 0 0 0 2.87-10.39Z"/><path fill="#336AFF" d="M37.01 27.13c-.81 0-1.48-1.22-1.48-2.72 0-1.51.67-2.73 1.48-2.73h1.48v5.45h-1.48Z"/><path fill="#4D7DFF" d="M38.5 27.13c.81 0 1.47-1.22 1.47-2.72 0-1.51-.66-2.73-1.48-2.73-.81 0-1.48 1.22-1.48 2.73 0 1.5.67 2.72 1.48 2.72Z"/><path fill="#8CD9FF" d="M32.16 13.24C31.9 9.9 32.16 8 25.82 8s-6.09 1.9-6.34 5.24c-.03.48 2.84.88 6.34.88s6.37-.4 6.34-.88Z"/><path fill="#52B3FF" d="M25.82 13.5c3.35 0 5.47-.31 6.3-.65l-.03-.54c-.33.28-2.67.67-6.27.67-1.15 0-2.18-.04-3.05-.1a13.81 13.81 0 0 1 .55-1.5c.99-2.24 2.36-3 4.94-3.25-.4-.05-.82-.08-1.3-.1-.6-.03-1.2.1-1.73.39a5.05 5.05 0 0 0-2.09 2.18 4.23 4.23 0 0 0-1.6-2.03c-.18.07-.36.16-.53.26a3.66 3.66 0 0 1 1.8 2.46c-.22.5-.4 1.02-.56 1.55-1.54-.14-2.5-.36-2.7-.53l-.04.54c.84.34 2.96.64 6.31.64Z"/><path fill="#000" d="M29.39 17.87c.36.3 0 .99-.61 1.74-.61.76-1.24 1.3-1.6 1-.38-.3 0-.97.6-1.73s1.24-1.3 1.6-1Z"/><path fill="#FF99CA" d="M30.6 22.02c.25.2 0 .69-.42 1.21-.42.53-.86.9-1.12.7-.26-.21 0-.69.42-1.21.42-.53.86-.9 1.12-.7ZM32.9 22.02c.25.2 0 .69-.42 1.21-.42.53-.86.9-1.12.7-.26-.21 0-.69.42-1.21.42-.53.86-.9 1.12-.7ZM19 22.72c-.33-.53-.7-.9-1-.7-.29.2-.13.69.2 1.21.32.53.69.9.98.7.3-.21.13-.68-.19-1.21ZM16.14 22.02c-.3.2-.13.69.19 1.21.32.53.69.9.98.7.3-.21.14-.69-.19-1.21-.32-.53-.69-.9-.98-.7Z"/><path fill="#000" d="M19.26 17.9c-.4.24-.17.92.29 1.71.46.8.97 1.38 1.38 1.14.41-.24.17-.93-.29-1.72-.46-.79-.97-1.37-1.38-1.14ZM22.4 22.6c0-.56 1.99-.56 1.99 0 0 .54-.6.85-1 .85-.41 0-1-.3-1-.86Z"/><path fill="#5865F2" d="M4.76 27.55a3.77 3.77 0 1 0 0-7.54 3.77 3.77 0 0 0 0 7.54ZM26.4 41.04a3.77 3.77 0 1 0 0-7.54 3.77 3.77 0 0 0 0 7.54Z"/><path fill="#fff" d="M31.3 18.72c-.72-.74-.45-2.36.06-4.6.43-1.87.76-3.4 2.19-3.7.85-.2 1.82 0 3.12 1.57.93 1.12 1.56 2.45 1.18 3.64-.54 1.67-2.8 2.49-4.67 3.1-.84.3-1.52.35-1.87-.01Z"/><path fill="#FF78B9" d="M33.74 16.63c.15.58.34 1.16.55 1.73 1.57-.58 3.13-1.37 3.56-2.72.38-1.2-.25-2.52-1.18-3.64a7.66 7.66 0 0 0-.6-.65l-2.64 4.3c.12.32.22.66.3.98Z"/><path fill="#FF99CA" d="m22.4 25.33 2.5-.23s-.16 1.66-1.02 1.77c-.86.12-1.14-.8-1.49-1.54Z"/></g><defs><linearGradient id="b" x1="22.5" x2="22.5" y1="3" y2="22.08" gradientUnits="userSpaceOnUse"><stop stop-color="#3F99F2"/><stop offset="1" stop-color="#8CD9FF"/></linearGradient><clipPath id="a"><rect width="45" height="45" fill="#fff" rx="22.5"/></clipPath></defs></svg>
